src/images/link_volunteer.svg

<svg width="102" height="102" fill="none" xmlns="http://www.w3.org/2000/svg"><path d="m19.2 48.5 3.9-.9s4.4 6.4 1.6 17.7h-4.8l-.7-16.8z" fill="#fff" stroke="#040000" stroke-miterlimit="10" stroke-linecap="round" stroke-linejoin="round"/><path d="m23.7 48.3 15.4.1s8.8-2.8 10.8-2.6c2 .1 5.2.5 4.8 4.6-.4 4.1-4.8.8-5.2-1.2M50.8 45.5s2-1.6 7.2 0M25.2 63.8 41 60.9s6.1 2.1 9.2-.5" stroke="#040000" stroke-miterlimit="10" stroke-linecap="round" stroke-linejoin="round"/><path d="m49.7 49.9-3.3 4.5s-.9 3.6 2.7 3.5c0 0 2.1-1.5 2.5-2.3M54.5 46.8s4.4-1.9 8.5-2.3l8.5-3.2L76 52s-5.3 2.1-7.7 1.7l-6.8 4.9s-4.2 3.2-5.8 3c0 0-2.7.8-2.9-1.6l2.9-2.7" stroke="#040000" stroke-miterlimit="10" stroke-linecap="round" stroke-linejoin="round"/><path d="M49.1 57.8s0 4.1 3.7 2.3M54.8 56.6l2.3.7M38 53.5s-.3 3.4 1.7 4.9M39.1 32.7l5.3 6.2M50.3 28.6l1.7 8.5M61.3 29.6 58 37.3M63.9 38.4l5.7-4.9" stroke="#040000" stroke-miterlimit="10" stroke-linecap="round" stroke-linejoin="round"/><path d="M81.2 52.5 78 54.8s-6.5-4.2-8.2-15.7l4.4-1.8 7 15.2z" fill="#fff" stroke="#040000" stroke-miterlimit="10" stroke-linecap="round" stroke-linejoin="round"/><path d="m50.3 54.5 1.9.9" stroke="#040000" stroke-miterlimit="10" stroke-linecap="round" stroke-linejoin="round"/></svg>

<svg width="102" height="102" viewBox="0 0 102 102" fill="none" xmlns="http://www.w3.org/2000/svg">
<path d="M19.2 48.5L23.1 47.6C23.1 47.6 27.5 54 24.7 65.3H19.9L19.2 48.5Z" fill="white" stroke="#040000" stroke-miterlimit="10" stroke-linecap="round" stroke-linejoin="round"/>
<path d="M23.7 48.3L39.1 48.4C39.1 48.4 47.9 45.6 49.9 45.8C51.9 45.9 55.1 46.3 54.7 50.4C54.3 54.5 49.9 51.2 49.5 49.2" stroke="#040000" stroke-miterlimit="10" stroke-linecap="round" stroke-linejoin="round"/>
<path d="M50.8 45.5C50.8 45.5 52.8 43.9 58 45.5" stroke="#040000" stroke-miterlimit="10" stroke-linecap="round" stroke-linejoin="round"/>
<path d="M25.2 63.8L41 60.9C41 60.9 47.1 63 50.2 60.4" stroke="#040000" stroke-miterlimit="10" stroke-linecap="round" stroke-linejoin="round"/>
<path d="M49.7 49.9L46.4 54.4C46.4 54.4 45.5 58 49.1 57.9C49.1 57.9 51.2 56.4 51.6 55.6" stroke="#040000" stroke-miterlimit="10" stroke-linecap="round" stroke-linejoin="round"/>
<path d="M54.5 46.8C54.5 46.8 58.9 44.9 63 44.5L71.5 41.3L76 52C76 52 70.7 54.1 68.3 53.7L61.5 58.6C61.5 58.6 57.3 61.8 55.7 61.6C55.7 61.6 53 62.4 52.8 60L55.7 57.3" stroke="#040000" stroke-miterlimit="10" stroke-linecap="round" stroke-linejoin="round"/>
<path d="M49.1 57.8C49.1 57.8 49.1 61.9 52.8 60.1" stroke="#040000" stroke-miterlimit="10" stroke-linecap="round" stroke-linejoin="round"/>
<path d="M54.8 56.6L57.1 57.3" stroke="#040000" stroke-miterlimit="10" stroke-linecap="round" stroke-linejoin="round"/>
<path d="M38 53.5C38 53.5 37.7 56.9 39.7 58.4" stroke="#040000" stroke-miterlimit="10" stroke-linecap="round" stroke-linejoin="round"/>
<path d="M39.1 32.7L44.4 38.9" stroke="#040000" stroke-miterlimit="10" stroke-linecap="round" stroke-linejoin="round"/>
<path d="M50.3 28.6L52 37.1" stroke="#040000" stroke-miterlimit="10" stroke-linecap="round" stroke-linejoin="round"/>
<path d="M61.3 29.6L58 37.3" stroke="#040000" stroke-miterlimit="10" stroke-linecap="round" stroke-linejoin="round"/>
<path d="M63.9 38.4L69.6 33.5" stroke="#040000" stroke-miterlimit="10" stroke-linecap="round" stroke-linejoin="round"/>
<path d="M81.2 52.5L78 54.8C78 54.8 71.5 50.6 69.8 39.1L74.2 37.3L81.2 52.5Z" fill="white" stroke="#040000" stroke-miterlimit="10" stroke-linecap="round" stroke-linejoin="round"/>
<path d="M50.3 54.5L52.2 55.4" stroke="#040000" stroke-miterlimit="10" stroke-linecap="round" stroke-linejoin="round"/>
</svg>
